lib/logo_updates/nrk-logo-nrk-p2-with-bg.svg

<svg width="238" height="84" viewBox="0 0 238 84" fill="none" xmlns="http://www.w3.org/2000/svg">
<rect width="238" height="84" fill="#78003D"/>
<path d="M20 63V21.0038H33.7802V63H20ZM52.5283 27.6877L60.4532 63H45.3721L35.9092 21.0038H44.3676C46.3072 20.9786 48.1892 21.6624 49.6607 22.9264C51.1347 24.1373 52.1473 25.8184 52.5283 27.6877ZM62.5233 63V21.0038H76.3035V63H62.5233ZM86.7116 36.9743C85.2267 36.9888 83.7656 36.6003 82.4839 35.8504C81.2193 35.1194 80.1688 34.0689 79.438 32.8041C78.6872 31.5222 78.2986 30.0607 78.3134 28.5751C78.2964 27.0986 78.6853 25.6458 79.438 24.3755C80.1766 23.1245 81.2259 22.0853 82.4839 21.3588C83.766 20.6098 85.2269 20.2213 86.7116 20.2348C88.1877 20.2189 89.6399 20.6078 90.9108 21.3588C92.1562 22.0917 93.1943 23.13 93.9271 24.3755C94.6789 25.6462 95.0677 27.0987 95.0517 28.5751C95.0655 30.0605 94.6769 31.5218 93.9271 32.8041C93.202 34.0633 92.1627 35.113 90.9108 35.8504C89.6398 36.6029 88.1866 36.9918 86.7097 36.9743H86.7116ZM97.1807 63V21.0038H110.962V63H97.1807ZM128.408 43.9538C128.447 43.9946 128.742 44.4776 129.295 45.403C129.848 46.3283 130.567 47.5114 131.454 48.952C132.341 50.392 133.277 51.9199 134.262 53.536C135.247 55.1521 136.174 56.6803 137.043 58.1202C137.908 59.5602 138.894 61.1867 140 63H124.859C123.912 61.4621 123.055 60.0721 122.286 58.83C121.517 57.5878 120.7 56.2471 119.833 54.8077C118.965 53.3698 118.107 51.9699 117.259 50.6081C116.41 49.2464 115.681 48.0536 115.071 47.0297C114.459 46.0051 114.035 45.3149 113.799 44.9594C113.214 44.0771 112.868 43.058 112.794 42.0019C112.853 40.9883 113.179 40.0084 113.74 39.1619C113.976 38.7676 114.41 38.0675 115.041 37.062C115.672 36.0564 116.411 34.8637 117.259 33.4835C118.106 32.1034 118.965 30.6936 119.833 29.2543C120.702 27.815 121.519 26.4643 122.286 25.2025C123.056 23.9419 123.914 22.5421 124.859 21.0029H140L128.289 40.1082C127.926 40.6755 127.722 41.3292 127.697 42.0019C127.736 42.7081 127.983 43.3871 128.406 43.9538H128.408Z" fill="white"/>
<path d="M184.56 26.4414C183.833 25.3189 182.898 24.3448 181.805 23.5714C180.588 22.7208 179.236 22.0809 177.806 21.6784C176.07 21.2001 174.274 20.9714 172.473 20.9992H156V62.999H162.222V47.9145H172.948C175.369 47.951 177.757 47.36 179.88 46.199C181.915 45.0737 183.605 43.4171 184.769 41.4065C186.017 39.188 186.641 36.6741 186.576 34.1305C186.581 32.756 186.423 31.3858 186.103 30.0488C185.795 28.7686 185.273 27.5492 184.56 26.4414ZM179.05 39.1892C178.254 40.4369 177.082 41.4002 175.703 41.9399C174.028 42.5724 172.247 42.8738 170.457 42.8273H162.221V26.1456H171.288C173.02 26.0804 174.743 26.4141 176.325 27.1207C177.583 27.7276 178.611 28.7234 179.257 29.9601C179.942 31.3473 180.278 32.8803 180.236 34.4263C180.304 36.0944 179.892 37.7471 179.05 39.1892Z" fill="#FDAFD7"/>
<path d="M198.646 57.9107C199.584 57.1082 200.548 56.2722 201.567 55.3671C202.989 54.1058 204.421 52.7354 205.863 51.2558C207.305 49.7763 208.678 48.2387 209.981 46.6428C211.248 45.098 212.406 43.4677 213.448 41.7635C214.421 40.1797 215.216 38.4933 215.818 36.7353C216.377 35.1173 216.667 33.4188 216.677 31.7072C216.705 30.109 216.382 28.5242 215.729 27.0645C215.083 25.6859 214.13 24.4722 212.944 23.5153C211.587 22.4416 210.024 21.6561 208.352 21.2072C206.296 20.6463 204.172 20.3775 202.041 20.4087C200.66 20.4051 199.282 20.5238 197.923 20.7636C196.629 20.9922 195.36 21.3391 194.13 21.7998C192.958 22.238 191.819 22.7616 190.723 23.3664L191.493 28.5128C192.432 27.8848 193.435 27.3593 194.486 26.9453C195.627 26.4873 196.807 26.1309 198.012 25.8804C199.239 25.6241 200.49 25.4956 201.745 25.497C203.058 25.4702 204.368 25.6494 205.626 26.0283C206.628 26.3347 207.549 26.8601 208.322 27.5664C209.018 28.2147 209.555 29.0142 209.892 29.903C210.237 30.8404 210.408 31.8326 210.396 32.8311C210.376 34.5072 210.034 36.1639 209.389 37.7113C208.639 39.5287 207.685 41.2554 206.544 42.8579C205.217 44.741 203.772 46.5389 202.219 48.2409C200.56 50.0747 198.752 51.9085 196.797 53.7423C194.841 55.5761 192.817 57.4395 190.723 59.3324L191.493 63H217.151L217.862 57.9117L198.646 57.9107Z" fill="#FDAFD7"/>
</svg>

<svg xmlns="http://www.w3.org/2000/svg" viewBox="0 0 238 84"><path fill="#78003D" d="M0 0h238v84H0z"/><path fill="#fff" d="M20 63V21.004h13.78V63H20Zm32.528-35.312L60.453 63h-15.08l-9.464-41.996h8.459a7.965 7.965 0 0 1 5.293 1.922 8.31 8.31 0 0 1 2.867 4.762ZM62.523 63V21.004h13.78V63h-13.78Zm24.189-26.026a8.213 8.213 0 0 1-4.228-1.124 8.336 8.336 0 0 1-3.046-3.046 8.206 8.206 0 0 1-1.125-4.229 8.056 8.056 0 0 1 1.125-4.2 8.437 8.437 0 0 1 3.046-3.016 8.233 8.233 0 0 1 4.228-1.124 8.083 8.083 0 0 1 4.199 1.124 8.504 8.504 0 0 1 3.016 3.016 8.075 8.075 0 0 1 1.125 4.2 8.226 8.226 0 0 1-1.125 4.23 8.4 8.4 0 0 1-3.016 3.045 8.059 8.059 0 0 1-4.201 1.124h.002ZM97.18 63V21.004h13.781V63H97.181Zm31.227-19.046c.039.04.334.524.887 1.449.553.925 1.272 2.108 2.159 3.549a1143.28 1143.28 0 0 1 5.589 9.168A854.89 854.89 0 0 0 140 63h-15.141c-.947-1.538-1.804-2.928-2.573-4.17a388.795 388.795 0 0 1-2.453-4.022 355.984 355.984 0 0 0-2.574-4.2 210.645 210.645 0 0 1-2.188-3.578 62.13 62.13 0 0 0-1.272-2.07 6.127 6.127 0 0 1-1.005-2.958 5.745 5.745 0 0 1 .946-2.84c.236-.394.67-1.094 1.301-2.1.631-1.006 1.37-2.198 2.218-3.578.847-1.38 1.706-2.79 2.574-4.23.869-1.439 1.686-2.79 2.453-4.052.77-1.26 1.628-2.66 2.573-4.2H140l-11.711 19.106a3.773 3.773 0 0 0-.592 1.894c.039.706.286 1.385.709 1.952h.002Z"/><path fill="#FDAFD7" d="M184.56 26.441a10.525 10.525 0 0 0-2.755-2.87 13.245 13.245 0 0 0-3.999-1.893 18.976 18.976 0 0 0-5.333-.679H156v42h6.222V47.914h10.726a14.006 14.006 0 0 0 6.932-1.715 12.813 12.813 0 0 0 4.889-4.792 14.104 14.104 0 0 0 1.807-7.276 17.264 17.264 0 0 0-.473-4.082 11.74 11.74 0 0 0-1.543-3.608Zm-5.51 12.748a6.993 6.993 0 0 1-3.347 2.75 13.83 13.83 0 0 1-5.246.888h-8.236V26.146h9.067a11.307 11.307 0 0 1 5.037.975 6.488 6.488 0 0 1 2.932 2.84 9.504 9.504 0 0 1 .979 4.465 8.74 8.74 0 0 1-1.186 4.763ZM198.646 57.91c.938-.802 1.902-1.638 2.921-2.543a81.904 81.904 0 0 0 4.296-4.111 70.372 70.372 0 0 0 4.118-4.613 43.362 43.362 0 0 0 3.467-4.88 25.207 25.207 0 0 0 2.37-5.028c.559-1.618.849-3.316.859-5.028a10.9 10.9 0 0 0-.948-4.643 10.03 10.03 0 0 0-2.785-3.549 12.714 12.714 0 0 0-4.592-2.308c-2.056-.56-4.18-.83-6.311-.798a23.347 23.347 0 0 0-4.118.355 21.45 21.45 0 0 0-3.793 1.036 25.632 25.632 0 0 0-3.407 1.566l.77 5.147a15.799 15.799 0 0 1 2.993-1.568 20.867 20.867 0 0 1 3.526-1.065 18.158 18.158 0 0 1 3.733-.383 12.57 12.57 0 0 1 3.881.531 7.055 7.055 0 0 1 2.696 1.538 6.194 6.194 0 0 1 1.57 2.337c.345.937.516 1.93.504 2.928a13.09 13.09 0 0 1-1.007 4.88 25.92 25.92 0 0 1-2.845 5.147 54.936 54.936 0 0 1-4.325 5.383 94.337 94.337 0 0 1-5.422 5.501 454.53 454.53 0 0 1-6.074 5.59l.77 3.668h25.658l.711-5.088-19.216-.001Z"/></svg>
